editor/icons/icon_auto_triangle.svg

<svg height="16" viewBox="0 0 16 16" width="16" xmlns="http://www.w3.org/2000/svg"><path d="m8.2324219.67773438-7.58789065 14.61132762h14.71093775zm-1.2910157 4.76562502h2.2695313c.3451753.6237333.6845072 1.2654948 1.0195315 1.9238281.335023.6496.670835 1.3367865 1.005859 2.0644531.345175.7276004.695453 1.5033054 1.050781 2.3261714.355328.822934.731017 1.719254 1.126953 2.689454h-2.542968c-.111674-.311867-.238728-.631738-.38086-.960938-.131979-.329133-.264505-.659081-.396484-.988281h-4.1113281c-.1319787.3292-.2680243.659148-.4101563.988281-.1319786.3292-.2555135.649071-.3671875.960938h-2.4667969c.3959374-.9702.7716252-1.86652 1.1269532-2.689454.355328-.822866.702086-1.598571 1.0371094-2.3261714.3451759-.7276666.6790355-1.4148531 1.0039062-2.0644531.3350233-.6583333.6798282-1.3000948 1.0351562-1.9238281zm1.0820313 2.0390625c-.0507667.1299333-.126999.3080031-.2285156.5332031-.101522.2252-.2176307.4847635-.3496094.7792969-.1319793.2945333-.2809234.619476-.4433594.9746093-.1522833.3551338-.3082684.7273878-.4707031 1.1171878h3c-.162436-.3898-.3203736-.762054-.4726562-1.1171878-.1522834-.3551333-.299275-.680076-.4414063-.9746093-.1319793-.2945334-.2480874-.5540969-.3496094-.7792969-.1015226-.2252-.1832273-.4032698-.2441406-.5332031z" fill="#e0e0e0"/></svg>

<?xml version="1.0" encoding="UTF-8" standalone="no"?>
<svg
   xmlns:dc="http://purl.org/dc/elements/1.1/"
   xmlns:cc="http://creativecommons.org/ns#"
   xmlns:rdf="http://www.w3.org/1999/02/22-rdf-syntax-ns#"
   xmlns:svg="http://www.w3.org/2000/svg"
   xmlns="http://www.w3.org/2000/svg"
   xmlns:sodipodi="http://sodipodi.sourceforge.net/DTD/sodipodi-0.dtd"
   xmlns:inkscape="http://www.inkscape.org/namespaces/inkscape"
   width="16"
   height="16"
   version="1.1"
   viewBox="0 0 16 16"
   id="svg8"
   sodipodi:docname="icon_auto_triangle.svg"
   inkscape:version="0.92.3 (2405546, 2018-03-11)">
  <metadata
     id="metadata14">
    <rdf:RDF>
      <cc:Work
         rdf:about="">
        <dc:format>image/svg+xml</dc:format>
        <dc:type
           rdf:resource="http://purl.org/dc/dcmitype/StillImage" />
        <dc:title></dc:title>
      </cc:Work>
    </rdf:RDF>
  </metadata>
  <defs
     id="defs12" />
  <sodipodi:namedview
     pagecolor="#ffffff"
     bordercolor="#666666"
     borderopacity="1"
     objecttolerance="10"
     gridtolerance="10"
     guidetolerance="10"
     inkscape:pageopacity="0"
     inkscape:pageshadow="2"
     inkscape:window-width="1853"
     inkscape:window-height="1016"
     id="namedview10"
     showgrid="false"
     inkscape:zoom="29.5"
     inkscape:cx="17.168167"
     inkscape:cy="5.5708575"
     inkscape:window-x="67"
     inkscape:window-y="27"
     inkscape:window-maximized="1"
     inkscape:current-layer="g4" />
  <g
     transform="translate(0 -1036.4)"
     id="g6">
    <g
       transform="translate(-26.001 -9.8683)"
       id="g4">
      <path
         style="fill:#e0e0e0;fill-opacity:1;stroke:none;stroke-width:1.87616086;stroke-linecap:butt;stroke-linejoin:miter;stroke-miterlimit:4;stroke-dasharray:none;stroke-opacity:1"
         d="M 8.2324219 0.67773438 L 0.64453125 15.289062 L 15.355469 15.289062 L 8.2324219 0.67773438 z M 6.9414062 5.4433594 L 9.2109375 5.4433594 C 9.5561128 6.0670927 9.8954447 6.7088542 10.230469 7.3671875 C 10.565492 8.0167875 10.901304 8.703974 11.236328 9.4316406 C 11.581503 10.159241 11.931781 10.934946 12.287109 11.757812 C 12.642437 12.580746 13.018126 13.477066 13.414062 14.447266 L 10.871094 14.447266 C 10.75942 14.135399 10.632366 13.815528 10.490234 13.486328 C 10.358255 13.157195 10.225729 12.827247 10.09375 12.498047 L 5.9824219 12.498047 C 5.8504432 12.827247 5.7143976 13.157195 5.5722656 13.486328 C 5.440287 13.815528 5.3167521 14.135399 5.2050781 14.447266 L 2.7382812 14.447266 C 3.1342186 13.477066 3.5099064 12.580746 3.8652344 11.757812 C 4.2205624 10.934946 4.5673204 10.159241 4.9023438 9.4316406 C 5.2475197 8.703974 5.5813793 8.0167875 5.90625 7.3671875 C 6.2412733 6.7088542 6.5860782 6.0670927 6.9414062 5.4433594 z M 8.0234375 7.4824219 C 7.9726708 7.6123552 7.8964385 7.790425 7.7949219 8.015625 C 7.6933999 8.240825 7.5772912 8.5003885 7.4453125 8.7949219 C 7.3133332 9.0894552 7.1643891 9.4143979 7.0019531 9.7695312 C 6.8496698 10.124665 6.6936847 10.496919 6.53125 10.886719 L 9.53125 10.886719 C 9.368814 10.496919 9.2108764 10.124665 9.0585938 9.7695312 C 8.9063104 9.4143979 8.7593188 9.0894552 8.6171875 8.7949219 C 8.4852082 8.5003885 8.3691001 8.240825 8.2675781 8.015625 C 8.1660555 7.790425 8.0843508 7.6123552 8.0234375 7.4824219 z "
         transform="translate(26.001,1046.2683)"
         id="path821" />
    </g>
  </g>
</svg>
